X: 10882
T: Drops Of Brandy, The
R: slip jig
M: 9/8
K: Dmajor
|:ded BGB BGB|ded BGB c2A|ded BGB BGB|cBc A2 B cBA:|
|:GB/c/d gdB gdB|GB/c/d gdB cBA|GB/c/d gdB gdB|cBc A2B cBA:|

